src/basic/600/u2193-down.svg

<svg width="17" height="24" viewBox="0 0 17 24" fill="none" xmlns="http://www.w3.org/2000/svg">
<path fill-rule="evenodd" clip-rule="evenodd" d="M9.01552,21.2953l7.14878,-7.1488l0.7071,0.7071l-7.99997,8l-0.35355,0.3535l-0.35356,-0.3535l-8,-8l0.70711,-0.7071l7.14409,7.1441v-21.2906h1z" fill="black"/>
</svg>

<svg width="17" height="24" viewBox="0 0 17 24" fill="none" xmlns="http://www.w3.org/2000/svg">
<path fill-rule="evenodd" clip-rule="evenodd" d="M9.01552 21.2953L16.1643 14.1465L16.8714 14.8536L8.87143 22.8536L8.51788 23.2071L8.16432 22.8536L0.164322 14.8536L0.87143 14.1465L8.01552 21.2906L8.01552 1.05606e-07L9.01552 9.36808e-08L9.01552 21.2953Z" fill="black"/>
</svg>
